!!!COM: Bohuslav (Jan) Martinů
!!!OTL: [T458_Mau-w14p27h2m6-h3m4]
**kern	**dynam	**kern	**dynam	**kern	**kern	**dynam	**kern	**dynam
*grp:A	*grp:A	*grp:A	*grp:A	*grp:A	*grp:B	*grp:B	*grp:B	*grp:B
*part5	*	*part4	*part4	*part3	*part2	*part2	*part1	*part1
*staff5	*	*staff4	*	*staff3	*staff2	*	*staff1	*
*I"Violoncello	*	*I"Violin	*	*I"Trumpet in Bb	*I"Bassoon	*	*I"Clarinet in Bb	*
*I'Vc.	*	*I'Vln.	*	*I'Tpt.	*I'Bsn.	*	*I'Cl.	*
!!pagebreak:original
*clefF4	*	*clefG2	*	*clefG2	*clefF4	*	*clefG2	*
*	*	*	*	*ITrd1c2	*	*	*ITrd1c2	*
*k[]	*	*k[]	*	*k[]	*k[]	*	*k[]	*
*C:	*	*C:	*	*C:	*C:	*	*C:	*
*M2/2	*	*M2/2	*	*M2/2	*M2/2	*	*M2/2	*
*met(c|)	*	*met(c|)	*	*met(c|)	*met(c|)	*	*met(c|)	*
=1	=1	=1	=1	=1	=1	=1	=1	=1
!	!	!	!	!	!	!	!LO:TX:t=[quarter]=136	!
!	!	!	!	!	!	!	!LO:TX:a:t=accel.	!
!	!	!	!	!	!	!	!LO:TX:a:B:t=[Poco a poco allegro]	!LO:DY:t=poco %s
!	!LO:DY:ed=brack	!	!	!	!	!	!LO:TX:t=P:problem:Hanging slur not implemented yet	!LO:DY:ed=brack
4r	f	1r	.	1r	1ryy	.	8ryy	4ryy
.	.	.	.	.	.	.	8ryy	.
(8qqF/	.	.	.	.	.	.	.	.
4F#X)	.	.	.	.	.	.	8ryy	4ryy
.	.	.	.	.	.	.	8ryy	.
4G	.	.	.	.	.	.	8ryy	.
.	.	.	.	.	.	.	8ryy	.
4r	.	.	.	.	.	.	8ryy	.
.	.	.	.	.	.	.	8ryy	.
=2	=2	=2	=2	=2	=2	=2	=2	=2
(8qqG/	.	.	.	.	.	.	.	.
*	*	*	*	*	*clefC4	*	*	*
4G#X)	.	1r	.	1r	4ryy	.	8ryy	.
.	.	.	.	.	.	.	8ryy	4ryy
!	!	!	!	!	!	!LO:DY:ed=brack	!	!
4A	.	.	.	.	8ryy	4ryy	4ryy	.
.	.	.	.	.	8ryy	.	.	.
4r	.	.	.	.	8ryy	.	2ryy	.
.	.	.	.	.	8ryy	.	.	.
(8qqA/	.	.	.	.	.	.	.	.
4A#X)	.	.	.	.	8ryy	.	.	.
.	.	.	.	.	8ryy	.	.	.
=3	=3	=3	=3	=3	=3	=3	=3	=3
4B	.	2r	.	1r	8ryy	.	2ryy	.
.	.	.	.	.	8ryy	.	.	.
4c	.	.	.	.	8ryy	.	.	.
.	.	.	.	.	8ryy	.	.	.
2r	.	4r	.	.	8ryy	4ryy	8ryy	.
.	.	.	.	.	8ryy	.	8ryy	.
.	.	(8qqc/	.	.	.	.	.	.
.	.	4c#X)	f	.	4ryy	.	8ryy	.
.	.	.	.	.	.	.	8ryy	.
!!linebreak:original
=4	=4	=4	=4	=4	=4	=4	=4	=4
1r	.	4d	.	1r	1ryy	.	8ryy	4ryy
.	.	.	.	.	.	.	8ryy	.
.	.	4r	.	.	.	.	8ryy	.
.	.	.	.	.	.	.	8ryy	.
.	.	(8qqd/	.	.	.	.	.	.
.	.	4d#X)	.	.	.	.	8ryy	.
.	.	.	.	.	.	.	8ryy	.
.	.	4e	.	.	.	.	8ryy	.
.	.	.	.	.	.	.	8ryy	4ryy
=5	=5	=5	=5	=5	=5	=5	=5	=5
1r	.	4r	.	1r	1ryy	.	8ryy	.
.	.	.	.	.	.	.	8ryy	.
.	.	(8qqe/	.	.	.	.	.	.
.	.	4f)	.	.	.	.	8ryy	4ryy
.	.	.	.	.	.	.	8ryy	.
.	.	4f#X	.	.	.	.	8ryy	.
.	.	.	.	.	.	.	8ryy	.
.	.	4r	.	.	.	.	8ryy	.
.	.	.	.	.	.	.	8ryy	4ryy
!!LO:REH:t=3
=6	=6	=6	=6	=6	=6	=6	=6	=6
.	.	(8qqf#X/	.	.	.	.	.	.
1r	.	4g)	.	1r	1ryy	.	8ryy	4ryy
.	.	.	.	.	.	.	8ryy	.
.	.	4g#X	.	.	.	.	8ryy	4ryy
.	.	.	.	.	.	.	8ryy	.
.	.	4r	.	.	.	.	8ryy	.
.	.	.	.	.	.	.	8ryy	.
.	.	(8qqg#/	.	.	.	.	.	.
.	.	4a')	.	.	.	.	8ryy	.
.	.	.	.	.	.	.	8ryy	4ryy
!!pagebreak:original
*	*	*	*	*	*clefF4	*	*	*
=7	=7	=7	=7	=7	=7	=7	=7	=7
1r	.	4a#X'	.	1r	1ryy	.	8ryy	.
.	.	.	.	.	.	.	8ryy	.
.	.	4r	.	.	.	.	8ryy	.
.	.	.	.	.	.	.	8ryy	.
.	.	(8qqa#/	.	.	.	.	.	.
.	.	4b')	.	.	.	.	8ryy	.
.	.	.	.	.	.	.	8ryy	.
.	.	4cc'	.	.	.	.	8ryy	.
.	.	.	.	.	.	.	8ryy	.
=8	=8	=8	=8	=8	=8	=8	=8	=8
1r	.	4r	.	1r	1ryy	.	8ryy	4ryy
.	.	.	.	.	.	.	8ryy	.
.	.	(8qqcc/	.	.	.	.	.	.
.	.	4cc#X')	.	.	.	.	8ryy	.
.	.	.	.	.	.	.	8ryy	.
.	.	4dd'	.	.	.	.	8ryy	.
.	.	.	.	.	.	.	8ryy	.
.	.	4r	.	.	.	.	8ryy	.
.	.	.	.	.	.	.	8ryy	.
=9	=9	=9	=9	=9	=9	=9	=9	=9
.	.	(8qqdd/	<	.	.	.	.	.
1r	.	4dd#X')	.	1r	1ryy	.	8ryy	.
.	.	.	.	.	.	.	8ryy	.
.	.	4ee'	.	.	.	.	8ryy	.
.	.	.	.	.	.	.	8ryy	.
.	.	4r	.	.	.	.	8ryy	.
!	!	!	!	!	!	!	!LO:TX:b:i:t=cresc.	!
.	.	.	.	.	.	.	8ryy	.
.	.	(8qqee/	[	.	.	.	.	.
.	.	4ff')	.	.	.	.	8ryy	.
.	.	.	.	.	.	.	8ryy	4ryy
=	=	=	=	=	=	=	=	=
*-	*-	*-	*-	*-	*-	*-	*-	*-
!!!system-decoration: [(s1,s2,s3,s4,s5)]
